build/img/icons/auto.svg

<svg width="37" height="32" viewBox="0 0 37 32" fill="none" xmlns="http://www.w3.org/2000/svg">
<path d="M27.4405 13.4761C26.2888 13.7483 25.5428 14.7085 25.4949 15.9863L25.4823 16.3417L26.9516 17.6522H27.2389C27.5438 17.6522 27.8563 17.6497 28.1789 17.6497C28.9703 17.6446 29.7894 17.6421 30.611 17.6598C30.6311 17.6598 30.6513 17.6598 30.6715 17.6598C31.483 17.6598 32.1887 17.3044 32.7683 16.6063C33.5446 15.6713 33.5194 14.5422 32.7028 13.5845C32.5339 13.3854 32.36 13.2115 32.1912 13.0452C32.1231 12.9771 32.0551 12.9091 31.9896 12.8436L31.7602 12.6067L31.4326 12.6142C31.3091 12.6167 31.1881 12.6167 31.0672 12.6167C30.4623 12.6167 29.7768 12.6167 29.0837 12.9141C28.4436 13.1838 27.937 13.3577 27.4405 13.4761ZM31.0672 14.1238C31.0898 14.1238 31.1125 14.1238 31.1327 14.1238C31.2839 14.2725 31.425 14.4162 31.551 14.5649C31.9719 15.0589 31.8131 15.3865 31.604 15.641C31.3015 16.004 31.0218 16.1602 30.6437 16.1476C30.1599 16.1375 29.6785 16.135 29.2047 16.135C28.8569 16.135 28.5116 16.1375 28.1714 16.1375C27.9521 16.1375 27.7379 16.1401 27.5262 16.1401L27.0499 15.7141C27.1255 15.4016 27.317 15.0589 27.7883 14.948C28.3755 14.8094 28.9577 14.6103 29.681 14.3003C30.0868 14.1264 30.5404 14.1264 31.0672 14.1238ZM8.64447 13.4257C8.29667 13.3501 7.94384 13.2191 7.57084 13.0805C6.67363 12.7478 5.65545 12.3723 4.46085 12.6923L4.26427 12.7453L4.12061 12.8889C3.38722 13.6223 2.66139 14.5069 2.82268 15.5125C2.99154 16.566 4.05761 17.2414 5.18416 17.8135L5.3757 17.9118L9.32241 17.5791L9.50135 17.4355C9.71809 17.2641 9.89703 17.0826 10.0533 16.8785V16.876C10.706 16.0216 10.5876 14.7942 9.78614 14.0835C9.48371 13.8164 9.11323 13.5291 8.64447 13.4257ZM8.85113 15.9586C8.8108 16.0115 8.76796 16.0594 8.71755 16.1098L5.67813 16.3669C4.5541 15.7721 4.33987 15.4293 4.31467 15.2756C4.29451 15.142 4.36508 14.8194 5.03798 14.1138C5.69829 14.0029 6.32583 14.2347 7.04411 14.4994C7.44987 14.6506 7.87075 14.8043 8.31935 14.9026C8.46553 14.9354 8.69487 15.1395 8.78056 15.2151C8.99478 15.4041 9.02502 15.7318 8.85113 15.9586ZM29.3332 9.44878C29.497 8.61458 29.1845 8.08028 28.8241 7.62412C28.0983 6.70927 27.5212 5.77677 27.1053 4.85184C26.3266 3.11035 25.0841 2.26102 23.3123 2.26102C23.3048 2.26102 23.2997 2.26102 23.2922 2.26102C20.5375 2.2711 17.735 2.2711 15.0232 2.26858L11.4772 2.26606L11.2605 2.46012C11.1899 2.52565 11.1194 2.60126 11.0513 2.67686C11.0362 2.6945 11.0211 2.71215 11.0059 2.72979C10.0558 2.97425 9.65257 3.71017 9.3577 4.25202C9.30729 4.34527 9.25689 4.436 9.20396 4.52673L9.18632 4.55697C8.5361 5.65832 7.86067 6.79748 7.13735 7.86354C6.79964 8.36003 6.69631 8.84392 6.80216 9.43618L6.91305 10.0612H29.2148L29.3332 9.44878ZM8.49829 8.54653C9.20396 7.49307 9.85671 6.39171 10.4868 5.32817L10.5044 5.29793C10.5674 5.19207 10.6254 5.08622 10.6833 4.97785C10.9707 4.45364 11.1093 4.24698 11.4319 4.18397C11.7368 4.12097 11.946 3.93699 12.0947 3.77821H15.0232C17.735 3.78073 20.5375 3.78073 23.2997 3.77317C23.3048 3.77317 23.3098 3.77317 23.3149 3.77317C24.4742 3.77317 25.195 4.27974 25.7267 5.4693C26.1905 6.50261 26.8281 7.53843 27.627 8.54653H8.49829ZM35.5885 22.3903C35.586 23.1262 35.5809 23.8848 35.591 24.6308C35.5935 24.9584 35.5608 25.2508 35.4877 25.5179C35.2609 26.3597 34.472 26.9494 33.5698 26.9494H30.3111C29.429 26.9494 28.6906 26.3194 28.557 25.4473C28.494 25.034 28.5091 24.6434 28.5242 24.2653L28.5267 24.1671C28.5293 24.1267 28.5091 24.099 28.494 24.0814C28.4789 24.0637 28.4486 24.0436 28.4058 24.041C27.9798 24.0259 27.5942 24.0058 27.2666 23.9856C26.9516 23.968 26.6819 23.9528 26.508 23.9528H23.2342C22.8158 23.9528 22.4781 23.6151 22.4781 23.1968C22.4781 22.7784 22.8158 22.4407 23.2342 22.4407H26.508C26.7273 22.4407 27.0045 22.4558 27.3548 22.476C27.6724 22.4936 28.0429 22.5163 28.4562 22.5289C28.8947 22.544 29.3005 22.728 29.6004 23.0506C29.8978 23.3707 30.054 23.7865 30.0364 24.225L30.0313 24.3258C30.0187 24.6459 30.0061 24.9509 30.0464 25.218C30.0666 25.3415 30.1775 25.4373 30.306 25.4373H33.5647C33.7815 25.4373 33.9755 25.3062 34.0234 25.1248C34.0587 24.9912 34.0763 24.8349 34.0738 24.6459C34.0663 23.8898 34.0688 23.1237 34.0713 22.3827C34.0763 21.3923 34.0814 20.3665 34.0562 19.366C34.0184 17.7329 33.9327 16.0493 33.7991 14.2171C33.7815 13.9802 33.6983 13.713 33.6101 13.4308C33.5395 13.2065 33.4664 12.9746 33.416 12.7226C33.3177 12.2488 33.0884 11.8103 32.8212 11.3012C32.6398 10.9584 32.4533 10.6005 32.292 10.2023L31.977 9.4261L34.1822 8.78343C34.3813 8.58433 34.5098 8.4306 34.5577 8.1937L34.094 7.54347H30.4774L30.2556 7.18559C29.9986 6.76975 29.7516 6.35139 29.5046 5.93303C28.9552 5.00306 28.436 4.12601 27.8286 3.31197C26.9289 2.10981 25.7393 1.50243 24.2826 1.51503C21.6716 1.53015 19.0153 1.52763 16.4446 1.52511C14.8166 1.52259 13.1885 1.52259 11.5604 1.52511C10.5926 1.52763 9.74582 1.8855 8.96958 2.62142C8.20594 3.34725 7.66409 4.25958 7.09199 5.22736C6.68623 5.91287 6.26787 6.62106 5.7487 7.29397L5.52187 7.58884H1.97588L1.58524 8.1937C1.73645 8.73807 2.12961 8.89685 3.03186 9.14383C3.14023 9.17407 3.24861 9.20432 3.35698 9.23708L4.24411 9.49667L3.81314 10.3132C3.75014 10.4342 3.69217 10.5451 3.63924 10.6484C3.52331 10.8727 3.4225 11.0668 3.31413 11.2583C2.76472 12.211 2.49757 13.2846 2.32871 14.1138C2.22538 14.6128 2.2279 15.2101 2.33123 15.9939C2.45725 16.9541 2.22034 18.499 2.15482 18.8896L2.25563 23.542L2.24807 23.595C2.24807 23.6 2.18758 24.1141 2.21026 24.6635C2.22538 25.0743 2.56562 25.3995 2.98146 25.3995C3.31413 25.3995 3.74762 25.407 4.20378 25.4146C4.87669 25.4247 5.57228 25.4373 6.08137 25.4297L6.09145 24.6257C6.09145 23.4185 7.07183 22.4407 8.27651 22.4407H12.7777C13.196 22.4407 13.5338 22.7784 13.5338 23.1968C13.5338 23.6151 13.196 23.9528 12.7777 23.9528H8.27903C7.90855 23.9528 7.60612 24.2553 7.60612 24.6257L7.60864 25.4146C7.61116 26.2463 6.93825 26.9318 6.10909 26.9444C5.5748 26.9519 4.86661 26.9419 4.18362 26.9293C3.73501 26.9217 3.30909 26.9141 2.98398 26.9141C1.75158 26.9141 0.748515 25.9539 0.70063 24.7266C0.677948 24.162 0.725833 23.6428 0.743474 23.474L0.640144 18.7788L0.652745 18.7057C0.733393 18.2394 0.922412 16.881 0.831683 16.193C0.705671 15.2353 0.710711 14.4767 0.846805 13.8088C1.04086 12.8688 1.34581 11.6439 2.00108 10.5048C2.0162 10.4796 2.0288 10.4544 2.04392 10.4292C1.18704 10.1393 0.226823 9.60252 0.0352835 8.13573L0 7.86102L1.15428 6.07668H4.76832C5.13879 5.55751 5.46895 5.00054 5.78902 4.45868C6.38884 3.44554 7.00882 2.39712 7.92619 1.52511C8.98218 0.524568 10.202 0.0154765 11.5554 0.0129562C13.186 0.010436 14.814 0.010436 16.4446 0.0129562C19.0128 0.0154765 21.6666 0.0179967 24.2751 0.00035494C26.2081 -0.0198071 27.8563 0.819437 29.0434 2.40468C29.7012 3.28424 30.2657 4.23942 30.8101 5.16183C30.9815 5.44914 31.1503 5.73897 31.3267 6.0288H34.8778L36.0951 7.73249V7.97443C36.0951 9.03294 35.5204 9.59496 35.1777 9.93015L34.9786 10.1267L34.0612 10.3939C34.0965 10.4619 34.1318 10.53 34.1671 10.598C34.4594 11.1575 34.7644 11.7346 34.903 12.4151C34.9408 12.5915 34.9987 12.7806 35.0592 12.9771C35.1651 13.3123 35.2835 13.6954 35.3138 14.1037C35.4499 15.9586 35.5356 17.6673 35.5734 19.3257C35.5986 20.3514 35.5935 21.3872 35.5885 22.3903ZM22.7629 25.0013H20.9408V18.62C20.9408 17.9849 20.4241 17.4707 19.7915 17.4707H16.3312C15.6961 17.4707 15.182 17.9874 15.182 18.62V25.0013H13.3599C12.8936 25.0013 12.4753 25.281 12.2963 25.712C12.1174 26.1429 12.2157 26.6344 12.5458 26.9645L17.2461 31.6648C17.4704 31.8891 17.7653 32 18.0601 32C18.355 32 18.6499 31.8891 18.8742 31.6648L23.5744 26.9645C23.9046 26.6344 24.0029 26.1429 23.8239 25.712C23.6475 25.281 23.2292 25.0013 22.7629 25.0013ZM18.0626 30.3417L14.2344 26.5134H15.5449C16.18 26.5134 16.6942 25.9968 16.6942 25.3642V18.9804H19.4286V25.3617C19.4286 25.9968 19.9453 26.5109 20.5779 26.5109H21.8884L18.0626 30.3417Z" fill="#4DA82F"/>
</svg>

<svg width="37" height="32" fill="none" xmlns="http://www.w3.org/2000/svg"><path d="M27.44 13.476c-1.151.272-1.897 1.232-1.945 2.51l-.013.356 1.47 1.31h.287l.94-.002c.791-.005 1.61-.008 2.432.01h.06c.812 0 1.518-.356 2.097-1.054.777-.935.751-2.064-.065-3.022a8.185 8.185 0 00-.512-.539l-.201-.201-.23-.237-.327.007c-.124.003-.245.003-.366.003-.605 0-1.29 0-1.983.297-.64.27-1.147.444-1.643.562zm3.627.648h.066c.15.149.292.292.418.44.42.495.262.822.053 1.077-.302.363-.582.52-.96.507-.484-.01-.965-.013-1.44-.013l-1.033.002c-.219 0-.433.003-.645.003l-.476-.426c.075-.312.267-.655.738-.766.587-.139 1.17-.338 1.893-.648.406-.174.86-.174 1.386-.176zm-22.423-.698c-.347-.076-.7-.207-1.073-.345-.897-.333-1.916-.709-3.11-.389l-.197.053-.143.144c-.734.733-1.46 1.618-1.298 2.623.169 1.054 1.235 1.73 2.361 2.302l.192.098 3.946-.333.18-.143c.216-.172.395-.353.551-.558v-.002a2.07 2.07 0 00-.267-2.793c-.302-.267-.673-.554-1.142-.657zm.207 2.533c-.04.053-.083.1-.133.15l-3.04.258c-1.124-.595-1.338-.938-1.363-1.091-.02-.134.05-.457.723-1.162.66-.111 1.288.12 2.006.385.406.152.827.305 1.275.404.147.032.376.236.462.312a.55.55 0 01.07.744zm20.482-6.51c.164-.834-.148-1.369-.509-1.825-.726-.915-1.303-1.847-1.719-2.772-.778-1.742-2.02-2.591-3.793-2.591h-.02c-2.755.01-5.557.01-8.269.008l-3.546-.003-.216.194a3.338 3.338 0 00-.21.217l-.045.053c-.95.244-1.353.98-1.648 1.522-.05.093-.101.184-.154.275l-.018.03c-.65 1.101-1.325 2.24-2.049 3.307-.337.496-.44.98-.335 1.572l.111.625h22.302l.118-.612zM8.498 8.547c.706-1.054 1.359-2.155 1.989-3.219l.017-.03c.063-.106.121-.212.18-.32.287-.524.425-.731.748-.794.305-.063.514-.247.663-.406h2.928c2.712.003 5.515.003 8.277-.005h.015c1.16 0 1.88.507 2.412 1.696a14.655 14.655 0 001.9 3.078H8.498zm27.09 13.843c-.002.736-.007 1.495.003 2.24.002.328-.03.62-.103.888-.227.842-1.016 1.431-1.918 1.431h-3.26c-.882 0-1.62-.63-1.754-1.502-.063-.413-.048-.804-.033-1.182l.003-.098a.117.117 0 00-.033-.086.126.126 0 00-.088-.04 43.736 43.736 0 01-1.14-.055 15.824 15.824 0 00-.758-.033h-3.274a.755.755 0 110-1.512h3.274c.22 0 .497.015.847.035.317.018.688.04 1.101.053.439.015.845.199 1.144.522.298.32.454.736.436 1.174l-.005.1c-.012.32-.025.626.015.893.02.123.131.22.26.22h3.259c.217 0 .41-.132.458-.313.036-.134.053-.29.05-.48-.007-.755-.004-1.521-.002-2.262.005-.99.01-2.017-.015-3.017a103.237 103.237 0 00-.257-5.149c-.017-.237-.1-.504-.189-.786-.07-.224-.144-.456-.194-.708-.098-.474-.328-.913-.595-1.422a11.72 11.72 0 01-.529-1.099l-.315-.776 2.205-.643c.2-.199.328-.352.376-.59l-.464-.65h-3.617l-.221-.357a72.018 72.018 0 01-.751-1.253c-.55-.93-1.069-1.807-1.676-2.621-.9-1.202-2.09-1.81-3.546-1.797-2.611.015-5.268.013-7.838.01a1577.74 1577.74 0 00-4.885 0c-.967.003-1.814.36-2.59 1.096-.764.726-1.306 1.639-1.878 2.606-.406.686-.824 1.394-1.343 2.067l-.227.295H1.976l-.39.605c.15.544.544.703 1.446.95.108.03.217.06.325.093l.887.26-.43.816-.175.335a18.16 18.16 0 01-.325.61c-.55.953-.816 2.027-.985 2.856-.104.499-.101 1.096.002 1.88.126.96-.11 2.505-.176 2.896l.1 4.652-.007.053c0 .005-.06.52-.038 1.069.015.41.356.735.771.735.333 0 .767.008 1.223.016.673.01 1.368.022 1.877.015l.01-.804c0-1.207.98-2.185 2.186-2.185h4.5a.755.755 0 110 1.512H8.28a.674.674 0 00-.673.673l.003.789a1.53 1.53 0 01-1.5 1.53 65.06 65.06 0 01-1.925-.016c-.449-.007-.875-.015-1.2-.015a2.274 2.274 0 01-2.283-2.187 9.197 9.197 0 01.042-1.253L.64 18.779l.013-.073c.08-.467.27-1.825.179-2.513-.126-.958-.121-1.716.015-2.384.194-.94.499-2.165 1.154-3.304l.043-.076C1.187 10.14.227 9.603.035 8.136L0 7.86l1.154-1.784h3.614c.37-.52.701-1.076 1.021-1.618.6-1.013 1.22-2.062 2.137-2.934 1.056-1 2.276-1.51 3.63-1.512 1.63-.003 3.258-.003 4.889 0 2.568.002 5.222.005 7.83-.013 1.933-.02 3.581.82 4.768 2.405.658.88 1.223 1.834 1.767 2.757.172.287.34.577.517.867h3.55l1.218 1.703v.242c0 1.059-.575 1.621-.917 1.956l-.2.197-.917.267.106.204c.292.56.597 1.137.736 1.817.038.177.096.366.156.562.106.335.224.718.255 1.127.136 1.855.222 3.563.26 5.222.025 1.025.02 2.061.015 3.064zm-12.825 2.611H20.94V18.62a1.15 1.15 0 00-1.15-1.15h-3.46a1.15 1.15 0 00-1.149 1.15v6.381H13.36a1.15 1.15 0 00-.814 1.963l4.7 4.7c.224.225.52.336.814.336.295 0 .59-.11.814-.335l4.7-4.7c.33-.33.429-.822.25-1.253a1.144 1.144 0 00-1.061-.71zm-4.7 5.34l-3.829-3.828h1.31a1.15 1.15 0 001.15-1.149V18.98h2.735v6.382a1.15 1.15 0 001.149 1.149h1.31l-3.825 3.83z" fill="#4DA82F"/></svg>
